X:1
T:That’s Enough for Me (Warner)
T:That’s Enough for Me (Warner)
T:Barney E. Warren, pub.1893
T:Daniel S. Warner
T:PUBLIC DOMAIN
T:PUBLIC DOMAIN
C:Barney E. Warren, pub.1893
Z:Daniel S. Warner
Z:PUBLIC DOMAIN
%%score ( 1 2 ) ( 3 4 )
L:1/8
Q:1/4=100
M:4/4
K:Ab
V:1 treble nm="Treble"
V:2 treble 
V:3 bass nm="Bass"
V:4 bass 
V:1
 [Ec]2 [Ec]3/2 [Ec]/ [Ec] [EB] [EA] [EG] | [DF]2 [DA]2 [CE]4 | %2
w: 1.~Tho’ all a- long my hap- py|pil- grim race|
w: 2.~With food and rai- ment, prom- ised|ev- er sure,|
w: 3.~I need to join no earth- be-|got- ten thing,|
w: 4.~The blood of Christ has washed my|gar- ments white,|
 [Ae]2 [Ae]3/2 [Ae]/ [Ae] [Ad] [Ac] [GB] | A2 [Fc]2 [EB]4 | %4
w: My treas- ures small and ve- ry|few may be,|
w: My sim- ple fare— a health- ful|lux- u- ry—|
w: The church that Je- sus built is|all I see,|
w: His might- y truth has ful- ly|set me free;|
 [Ec]2 [Ec]3/2 [Ec]/ [Ec] [EB] [EA] [EG] | [DF]2 [FA]2 [Fd]4 | %6
w: My soul is blest with heav- en’s|sav- ing grace,|
w: I’ve laid some treas- ures up in|heav- en’s store,|
w: And God Him- self has tru- ly|set me in,|
w: His spir- it floods my hap- py|soul with light,|
 [Ec] [Ae] [Ad] [Af] [Ae] [Gd] [Ac]3/2 [EB]/ | [EA]6 ||"^Refrain" [EA]2 | %9
w: And that is e- nough, e- nough for|me.|Oh,|
w: And that’s gold e- nough, e- nough for|me.||
w: And that’s sure- ly good e- nough for|me.||
w: And that won- drous joy’s e- nough for|me.||
 [EG]4 [EG] [EG] [DF] [DE] | (([CE] [EA]3 [EA]2)) [Ac]2 | [GB]4 [GB] [GB] [Ac] [Gd] | e4 e2 [Ed]2 | %13
w: that’s _ e- nough for|me, _ _ His|truth _ has set me|free; _ The|
w: ||||
w: ||||
w: ||||
 [Ec]4 [Ec] [EB] [EA] [EG] | [DF] [Fd] [Fd] [DF] [FB]2 (([FA] [DF])) | %15
w: blood _ of Christ has|sanc- ti- fied my soul, And *|
w: ||
w: ||
w: ||
 (([CE] [B,D])) [A,C] [CE] (([Ec] [Ae])) (B c) | A6 z2 |] %17
w: that * is e- nough _ for *|me.|
w: ||
w: ||
w: ||
V:2
 x8 | x8 | x8 | A2 z2 z4 | x8 | x8 | x8 | x6 || x2 | x8 | x8 | x8 | A A G G G F z2 | x8 | x8 | %15
 z4 z2 E2 | E2 F F E2 z2 |] %17
V:3
 [A,,A,]2 [A,,A,]3/2 [A,,A,]/ [A,,A,] [B,,G,] [C,A,] [E,B,] | [D,A,]2 [F,A,]2 A,4 | %2
w: ||
 [A,C]2 [A,C]3/2 [A,C]/ [A,C] [A,F] [A,E] [G,D] | [F,C]2 [F,A,]2 [E,G,]4 | %4
w: ||
 [A,,A,]2 [A,,A,]3/2 [A,,A,]/ [A,,A,] [B,,G,] [C,A,] [E,B,] | [D,A,]2 [D,A,]2 [D,A,]4 | %6
w: ||
 A, [A,C] [D,D] [D,D] [E,C] [E,B,] [E,E]3/2 [E,D]/ | [A,,A,C]6 || [A,,C]2 | %9
w: ||Oh,|
 [E,B,] [E,B,] [E,B,] [E,B,] [E,B,] [E,B,] [E,A,] [E,G,] | %10
w: that’s e- nough for me, His pre- cious|
 [A,,A,] [A,,C] [A,,C] [A,,C] [A,,C]2 [A,,E]2 | [E,E] [E,E] [E,E] [E,E] [E,E] [E,E] [E,C] [E,B,] | %12
w: truth has set me free; Oh,|that’s e- nough for me, His pre- cious|
 [A,C] [A,C] [B,D] [B,D] [E,E]2 [E,B,]2 | %13
w: truth has set me free; The|
 [A,,A,] [A,,A,] [A,,A,] [A,,A,] [A,,A,] [B,,G,] [C,A,] [E,B,] | %14
w: blood of Christ has made me whole, the|
 [D,A,] [D,A,] [D,A,] [D,A,] [D,D] [D,D] [D,A,] [D,A,] | (A, E,) E, [E,A,] (A, C) D E | %16
w: love of God is in my soul, And|that * is e- nough * for *|
 C C D D C2 z2 |] %17
w: me (e- nough for me).|
V:4
 x8 | z4 A,4 | x8 | x8 | x8 | x8 | A, z z2 z4 | x6 || x2 | x8 | x8 | x8 | x8 | x8 | x8 | %15
 E,2 E, z E,2 E,2 | A,,6 z2 |] %17

